X: 01052
T: HITCHY'S REEL
C: Bob McQuillen '73
B: Bob's Note Book 1 #52
R: reel, march
Z: 2019 John Chambers <jc:trillian.mit.edu>
M: C
L: 1/8
K: G
D2 \
| D2G2 B2d2 | d4 c2dc | B2G2 G2FG | A2d2 D2D2 |\
| D2G2 B2d2 | d4 c2dc | B2cB A2d2 | G6 :|
|: Bc \
| d3e d3c | B2g2 d2AB | c3d c3B | A2d2 D2Bc |\
| d3e d3c | B2g2 d2dc | B2cB A2d2 | G6 :|
%%begintext align
%% For Pam Hitchcock
%%endtext

%%sep 1 1 500

%%sep 1 1 500

